X:1
T:Title
%%score { ( 1 3 ) | ( 2 4 ) }
L:1/8
Q:1/4=120
M:4/4
K:A
V:1 treble nm="Piano" snm="Pno."
V:3 treble 
V:2 bass 
V:4 bass 
V:1
 z8 | z4 [A,C]2 F2 | A2[K:bass] [F,B,]4 [F,A,]2 | [E,G,]6 [G,B,]2 | C2 [G,E]2 [F,A,]4 | %5
 [E,G,]2 [D,F,]6 | [A,C]2 F2 A2[K:bass] [D,B,]2- | [D,B,]2 [F,A,]2 [E,G,]4- | %8
 [E,G,]2 [E,G,]2 F,2 E,2 | F,8 | F,4[K:treble] [Cc]2 [Ff]2 | [Aa]2 [B,B]4 [A,A]2 | [G,G]6 [B,B]2 | %13
 [Cc]2 [Ee]2 [A,A]4 | [G,G]2 [F,F]6 | [Cc]2 [Ff]2 [Aa]2 [B,B]2- | [B,B]2 [A,A]2 [G,G]4- | %17
 [G,G]2 [G,G]2[K:bass] [F,F]2 [E,E]2 | F8- | F4[K:treble] z4 | [Aa]2 [B,B]4 [A,A]2 | %21
 [G,G]6 [B,B]2 | [Cc]2 [Ee]2 [A,A]4 | [G,G]2 [F,F]6 | [Cc]2 [Ff]2 [Aa]2 [B,B]2- | %25
 [B,B]2 [A,A]2 [G,G]4- | [G,G]2 [G,G]2[K:bass] [F,F]2 [E,E]2 | F8- | F4 F4 | %29
[K:F] D,2 D, D,2 D, D,2 | D,D,D,D, D,2 D,D,- | D,D, D,2 D,D,D,D, | %32
 .[D,,D,]2 [D,,D,] [D,,D,]2 .[D,,D,] [D,,D,]2 | .[D,,D,]D, .A,/A,/.C .[F,A,D]2 [F,A,D] z | %34
[K:treble] DE .[B,DF]2 [B,DF] z FG | .[A,CE]2 [A,CE] z DCC[K:bass][F,A,D]- | %36
 [F,A,D] z A,/B,/C .[F,B,D]2 [F,B,D] z | B,/[K:treble]D/E .[A,CF]2 [A,CF] z F/F/G | %38
 .[G,CE]2 [G,CE] z DC[K:bass] .[F,A,D]2- | [F,A,D] z A,C .[F,A,D]2 [F,A,D] z | %40
[K:treble] DF .[B,DG]2 [B,DG] z GA | .[DGB]2 [DGB] z AG[DFA].D- | D z DE .[B,DF]2 [B,DF]F | %43
 .[B,DG]2 [DFA] .D2 z DF | .[A,^CE]2 [A,CE] z FD .[A,CE]2- | [A,CE] z [Aa][cc'] .[dd']2 [dd'] z | %46
 [dd'][ee'] .[ff']2 [ff'] z [ff'][gg'] | .[ec'e']2 [ec'e'] z [dd'][cc'][cc'].[dd']- | %48
 [dd'] z [Aa][cc'] .[dd']2 [dd'] z | [dd'][ee'] .[ff']2 [ff'] z [ff'][gg'] | %50
 .[ec'e']2 [ec'e'] z [dd'][cc'] .[dd']2- | [dd'] z [Aa][cc'] .[dd']2 [dd'] z | %52
 [dd'][ff'] .[gg']2 [gg'] z [gg'][aa'] | .[bb']2 [bb'] z [aa'][gg'][aa'].[dd']- | %54
 [dd'] z [dd'][ee'] .[ff']2 [ff'] z | .[gg']2 [aa'] .[dd']2 z [dd'][ff'] | %56
 [ee']2 [ee']2 [dd'][^c^c'] [dd']2 | [dd']2 [ee']2 [ff']2 [ff'][ff'] | [gg']2 [aa']3 afd | %59
 A3 z3 [bb']2- | [bb']bfd B3 z | z2[K:bass] [A,D]3 [F,D]3 |[K:treble] .[A,^CF]3 z FG [DFA]2 | %63
 [DFA]-[DFA] [DFA]2 [DFB] [DFA]2 z | z2 [CEG]2 [CEG]-[CEG] [CEG]2 | [CEG] [CFA]2 z3 [DFA]2 | %66
 [DFA]-[DFA] [DFA]2 [DFB] [DFA]2 z | z2 [^CEG]2 [CF]-[CF] [A,E]2 | .[A,D]3 z DE F2- | %69
 FFGA [CG]2 F-F | E2 [CF]2 G-G A2 | [CG]3- [CG] FG A2- | AAGF E2 F-F | E2 D3 E C2 | %74
 D3- D [Dd][Ee] [Ff]2- | [Ff][Ee] [Ff]2 [Gg]2 [Ff]-[Ff] | [Gg]2 [Aa]2 [Gg]-[Gg] [Ff]2 | %77
 .[Dd]3 z [Dd][Ee] [Ff]2 | [Gg]-[Gg] [Aa]2 [Bb]2 [Dd]-[Dd] | [Gg]2 .[Ff]3 z [Gg][Ee] | %80
 .[Dd]3 z [Ee][^C^c] .[dfa]2- | [dfa] z3 .[dgb]3 z | z2 [cfa]2 [cfa]-[cfa] [cfa]2 | %83
 [cfa] .[ceg]2 z3 .[Bdg]2- | [Bdg] z3 .[Adf]3 z | z2 [G^ce]2 [Adf]-[Adf] [Gce]2 | %86
 [Ge] .[Fd]2 [Dd] [Ee][Ff] .[Adfa]2- | [Adfa][Dd][Ee][Ff] .[Bdfb]3 [Dd] | %88
 [Ee][Ff] [Acfa]2 [Acfa]-[Acfa] [cfac']2 | [Acfa] [Gceg]2 z3 .[GBdg]2- | [GBdg] z3 .[FAdf]3 z | %91
 z2 [G^ce]2 [Adf]-[Adf] [Gce]2 | .[FAd]3 z3[K:bass] D,2- | D,4 z4 | %94
 F,/A,,/D,/A,,/ F,/A,,/D,/A,,/ F,/A,,/D,/A,,/ F,/A,,/D,/A,,/ | %95
 F,/A,,/D,/A,,/ F,/A,,/D,/A,,/ F,/A,,/D,/A,,/ F,/A,,/D,/A,,/ | %96
 F,/A,,/D,/A,,/ F,/A,,/D,/A,,/ F,/A,,/D,/A,,/ F,/A,,/D,/A,,/ | %97
 A,,D,/A,,/ F,/A,,/D,/A,,/ D,/A,,/D,/A,,/ F,/A,,/D,/A,,/ | %98
 D,/B,,/D,/B,,/ F,/B,,/D,/B,,/ F,/B,,/D,/B,,/ F,/B,,/D,/B,,/ | %99
 [A,,F,]/B,,/D,/B,,/ F,/B,,/D,/B,,/ F,/B,,/D,/B,,/ F,/B,,/D,/B,,/ | %100
 [G,,E,]C,/G,,/ E,/G,,/C,/G,,/ E,/G,,/C,/G,,/ E,/G,,/C,/G,,/ | %101
 G,,C,/G,,/ E,/G,,/C,/G,,/ C,/G,,/C,/G,,/ E,/G,,/C,/G,,/ | %102
 C,/A,,/C,/A,,/ E,/A,,/C,/A,,/ E,/A,,/C,/A,,/ E,/A,,/C,/A,,/ | %103
 E,/A,,/C,/A,,/ E,/A,,/C,/A,,/ [F,,E,]/A,,/C,/A,,/ E,/A,,/C,/A,,/ | %104
 D,,/B,,/D,/B,,/ F,/B,,/D,/B,,/ F,/B,,/D,/B,,/ F,/B,,/D,/B,,/ | %105
 D,/B,,/D,/B,,/ F,/B,,/D, [F,B,D]D,/B,,/ F,/B,,/D, | %106
 [F,A,D]D,/A,,/ F,/A,,/D,/A,,/ F,/A,,/D,/A,,/ F,/A,,/D,/A,,/ | %107
 G,/A,,/D,/A,,/ G,/A,,/D,/A,,/ G,/A,,/D,/A,,/ G,/A,,/D,/A,,/ | %108
 E,/G,,/C,/G,,/ E,/G,,/C,/G,,/ E,/G,,/C,/G,,/ E,/G,,/C,/G,,/ | %109
 D,/G,,/C,/G,,/ E,/G,,/C,/G,,/ C,/G,,/C,/G,,/ E,/G,,/C,/G,,/ | %110
 D,/G,,/=B,,/G,,/ D,/G,,/B,,/G,,/ D,/G,,/B,,/G,,/ D,/G,,/B,,/G,,/ | %111
 D,/G,,/=B,,/G,,/ D,/G,,/B,,/G,,/ G,/G,,/B,,/G,,/ D,/G,,/B,,/G,,/ | %112
 G,/B,,/D,/B,,/ G,/B,,/D,/B,,/ [F,G,]/B,,/D,/B,,/ G,/B,,/D,/B,,/ | %113
 [E,G,]/B,,/D,/B,,/ G,/B,,/D,/B,,/ [D,G,]/B,,/D,/B,,/ G,/B,,/D,/B,,/ | %114
 [C,E,]/G,,/C,/G,,/ E,/G,,/C,/G,,/ E,/G,,/C,/G,,/ E,/G,,/C,/G,,/ | %115
 [E,G,]/G,,/C,/G,,/ E,/G,,/C, [E,C]C,/G,,/ E,/G,,/C, | %116
 [A,C]/C,/E,/C,/ A,/C,/E,/C,/ [A,=B,]/C,/E,/C,/ A,/C,/E,/C,/ | %117
 A,/C,/E,/C,/ A,/C,/E,/C,/ [G,A,]/C,/E,/C,/ A,/C,/E,/C,/ | %118
 [F,B,]/D,/F,/D,/ B,/D,/F,/D,/ B,/D,/F,/D,/ B,/D,/F,/D,/ | %119
 D,F,/D,/ B,/D,/F,/D,/ [F,B,D]/D,/F,/D,/ B,/D,/F,/D,/ | %120
 [F,A,E]/D,/F,/D,/ A,/D,/F,/D,/ A,/D,/F,/D,/ A,/D,/F,/D,/ | %121
 A,/D,/F,/D,/ A,/D,/F,/D,/ A,/D,/F,/D,/ A,/D,/F,/D,/ | %122
 E,/C,/E,/C,/ G,/C,/E,/C,/ G,/C,/E,/C,/ G,/C,/E,/C,/ | %123
 D,/C,/E,/C,/ G,/C,/E,/C,/ C,E,/C,/ G,/C,/E,/C,/ | %124
 D,[K:treble]D/A,/ F/A,/D/A,/ F/A,/D/A,/ F/A,/D/A,/ | [A,DFA]D/A,/ F/A,/D [DFAd]D/A,/ F/A,/D | %126
 [DFBd]D/B,/ F/B,/D/B,/ [A,A]/B,/D/B,/ F/B,/D/B,/ | %127
 [G,G]/B,/D/B,/ G/[K:bass]B,/D/B,/ [F,G]/B,/[K:treble]D/B,/ G/B,/D/[K:bass]B,/ | %128
 [E,E]/G,/C/G,/[K:treble] E/G,/C/G,/ E/[K:bass]G,/C/G,/ E/G,/[K:treble]C/G,/ | %129
 [G,CEG]E/C/ G/C/E/C/ [CEGc]E/C/ G/C/E/C/ | [CEAc]E/C/ A/C/E/C/ [=B,A]/C/E/C/ A/C/E/C/ | %131
 [A,A]/C/E/C/ A/C/E/C/ [G,A]/C/E/C/ A/C/E/C/ | %132
[K:bass] F,/D/[K:treble]F/D/ B/D/F/D/ B/D/F/D/ B/D/F/D/ | [DFBd]F/D/ B/D/F [dfbd']F/D/ B/D/F | %134
 [dfad']F/D/ A/D/F/D/ [EA]/D/F/D/ A/D/F/D/ | [EA]/D/F/D/ A/D/F/D/ [FA]/D/F/D/ A/D/F/D/ | %136
 [EGce]E/C/ G/C/E/C/ G/C/E/C/ G/C/E/C/ | [DGd]E/C/ G/C/E/C/ [CEGc]E/C/ G/C/E/C/ | %138
 [DFAd]D/A,/ F/A,/D/A,/ F/A,/D/A,/ F/[K:bass]A,/D/A,/ | %139
 A,D/A,/[K:treble] F/A,/D/A,/ D/A,/D/A,/ F/[K:bass]A,/D/A,/ | %140
 D/B,/[K:treble]D/B,/ F/B,/D/B,/ F/B,/D/B,/ F/B,/D/B,/ | %141
 F/B,/D/B,/ F/B,/D/B,/ F/B,/D/B,/ F/[K:bass]B,/D/B,/ | %142
 E/G,/[K:treble]C/G,/ E/G,/C/[K:bass]G,/ E/G,/C/G,/ E/G,/C/G,/ | %143
 G,[K:treble]C/G,/ E/G,/C/[K:bass]G,/ C/G,/C/G,/[K:treble] E/G,/C/G,/ | %144
 C/[K:bass]A,/C/A,/ E/A,/[K:treble]C/A,/ E/A,/C/[K:bass]A,/ E/A,/C/A,/ | %145
[K:treble] E/A,/C/A,/ E/[K:bass]A,/C/A,/ E/A,/[K:treble]C/A,/ E/A,/C/A,/ | %146
 F/B,/D/B,/ F/B,/D/B,/ F/B,/D/B,/ F/[K:bass]B,/D/B,/ | %147
 D/B,/[K:treble]D/B,/ F/B,/D [DFBd]D/B,/ F/B,/D | [DFAd]D/A,/ F/A,/D/A,/ F/A,/D/A,/ F/A,/D/A,/ | %149
 F/A,/D/A,/ F/A,/D/A,/ F/A,/D/A,/ F/[K:bass]A,/D/A,/ | %150
 [B,E]/G,/[K:treble]C/G,/ E/G,/C/[K:bass]G,/ [CE]/G,/C/G,/[K:treble] E/G,/C/G,/ | %151
 [CE]/[K:bass]G,/C/G,/ E/G,/[K:treble]C/G,/ [DE]/G,/C/[K:bass]G,/ E/G,/C | %152
 [^C,F,A,^C]D,/A,,/ F,/A,,/D,/A,,/ [D,F,A,D]D,/A,,/ F,/A,,/D,/A,,/ | %153
 [F,A,DF]D,/A,,/ F,/A,,/D,/A,,/ [E,A,DE]D,/A,,/ F,/A,,/D, | %154
 [^C,F,B,^C]D,/B,,/ F,/B,,/D,/B,,/ [D,F,B,D]D,/B,,/ F,/B,,/D, | [E,B,DE]4 [F,B,DF]4 | %156
 [^C,F,A,^C]D,/A,,/ F,/A,,/D,/A,,/ [D,F,A,D]D,/A,,/ F,/A,,/D,/A,,/ | %157
 [F,A,DF]D,/A,,/ F,/A,,/D,/A,,/ [E,A,DE]D,/A,,/ F,/A,,/D, | %158
 [F,B,DF]D,/B,,/ F,/B,,/D,/B,,/ [G,B,DG]D,/B,,/ F,/B,,/D, | [E,B,DE]4[K:treble] [F,B,DF]4 | %160
 [^CFA^c]D/A,/ F/A,/E/A,/ [DFAd]D/A,/ F/A,/D/A,/ | [FAdf]D/A,/ F/A,/D/A,/ [EAde]D/A,/ F/A,/D | %162
 [^CFB^c]D/B,/ F/B,/E/B,/ [DFBd]D/B,/ F/B,/D | [EBde]4 [FBdf]4 | %164
 [^CFA^c]D/A,/ F/A,/E/A,/ [DFAd]D/A,/ F/A,/D/A,/ | [FAdf]D/A,/ F/A,/D/A,/ [EAde]D/A,/ F/A,/D | %166
 [FBdf]D/B,/ F/B,/D/B,/ [GBdg]D/B,/ F/B,/D | [EBde]4 [FBdf]4 | %168
[K:bass] F,/A,,/D,/A,,/ F,/A,,/D,/A,,/ F,/A,,/D,/A,,/ F,/A,,/D,/A,,/ | %169
 F,/A,,/D,/A,,/ F,/A,,/D,/A,,/ F,/A,,/D,/A,,/ F,/A,,/D,/A,,/ | %170
 [F,,F,]/B,,/^C,/B,,/ F,/B,,/C,/B,,/ F,/B,,/C,/B,,/ F,/B,,/C,/B,,/ | %171
 F,/B,,/^C,/B,,/ F,/B,,/C,/B,,/ F,/B,,/C,/B,,/ F,/B,,/C,/B,,/ | %172
 F,/A,,/D,/A,,/ F,/A,,/D,/A,,/ F,/A,,/D,/A,,/ F,/A,,/D,/A,,/ | %173
 F,/A,,/D,/A,,/ F,/A,,/D,/A,,/ F,/A,,/D,/A,,/ F,/A,,/D,/A,,/ | %174
 [F,,F,]/B,,/^C,/B,,/ F,/B,,/C,/B,,/ F,/B,,/C,/B,,/ F,/B,,/C,/B,,/ | %175
 F,/B,,/^C,/B,,/ F,/B,,/C,/B,,/ F,/B,,/C,/B,,/ F,/B,,/C, | %176
[K:treble] F/A,/D/A,/ F/A,/D/A,/ F/A,/D/A,/ F/A,/D/A,/ | [A,DFA]D/A,/ F/A,/D [DFAd]D/A,/ F/A,/D | %178
 [DFBd]D/B,/ F/B,/D/B,/ F/B,/D/B,/ F/B,/D/B,/ | F/B,/D/B,/ F/B,/D [DFAd]D/B,/ F/B,/D | %180
 [GBdg]D/B,/ G/B,/D/B,/ G/B,/D/B,/ G/B,/D/B,/ | G/B,/D/B,/ G/B,/D [EGBe]D/B,/ G/B,/D | %182
 [FAdf]D/A,/ F/A,/D/A,/ F/A,/D/A,/ F/A,/D/A,/ | F/A,/D/A,/ F/A,/D/A,/ F/A,/D/A,/ F/A,/D/A,/ | %184
 F/A,/D/A,/ F/A,/D/A,/ F/A,/D/A,/ F/[K:bass]A,/D/A,/ | %185
 A,D/A,/[K:treble] F/A,/D/A,/ D/A,/D/A,/ F/[K:bass]A,/D/A,/ | %186
 [E,D]/B,/[K:treble]D/B,/ F/B,/D/B,/ F/B,/D/B,/ F/B,/D/B,/ | %187
 F/B,/D/B,/ F/[K:bass]B,/D/B,/ D/B,/[K:treble]D/B,/ F/B,/D/B,/ | %188
 [G,G]/B,/D/B,/ G/B,/D/B,/ G/B,/D/B,/ G/B,/D/B,/ | %189
 G/B,/D/B,/ G/[K:bass]B,/D/B,/ E/B,/[K:treble]D/B,/ G/B,/D/B,/ | %190
 F/A,/E/A,/ F/A,/E/A,/ F/A,/D/A,/ F/A,/D/A,/ | F/A,/E/A,/ F/A,/E/A,/ F/A,/D/A,/ F/A,/D/A,/ | %192
 F/A,/D/A,/ F/A,/D/A,/ F/A,/D/A,/ F/B,/D/B,/ | F/A,/D/A,/ F/A,/D/A,/ F/A,/D/A,/ F/B,/D/B,/ | %194
 F/A,/D/A,/ F/A,/D/A,/ F/A,/D/A,/ F/B,/D/B,/ | F/A,/D/A,/ F/A,/D/A,/ F/A,/D/A,/ F/B,/D/B,/ | %196
 F/A,/D/A,/ F/A,/D/A,/ F/A,/D/A,/ F/A,/D/A,/ | F/A,/D/A,/ F/A,/D/A,/ F/A,/D/A,/ F/A,/D/A,/ | %198
 F/B,/D/B,/ F/B,/D/B,/ F/B,/D/B,/ F/B,/D/B,/ | F/A,/D/A,/ F/A,/D/A,/ F/A,/D/A,/ F/A,/D/A,/ | %200
 F/B,/D/B,/ F/B,/D/B,/ F/B,/D/B,/ F/B,/D/B,/ | ^F/=B,/D/B,/ F/B,/D/B,/ F/B,/D/B,/ F/B,/D/B,/ | %202
 F/B,/D/B,/ F/B,/D/B,/ F/B,/D/B,/ F/B,/D/B,/ | F/A,/D/A,/ F/A,/D/A,/ F/A,/D/A,/ F/A,/D/A,/ | %204
 F/A,/D/A,/ F/A,/D/A,/ F/A,/D/A,/ F/A,/D/A,/ | F/A,/D/A,/ F/A,/D/A,/ F/A,/D/A,/ F/A,/D/A,/ | %206
 F/A,/D/A,/ F/A,/D/A,/ F/A,/D/A,/ F/A,/D/A,/ | F/B,/D/B,/ F/B,/D/B,/ F/B,/D/B,/ F/B,/D/B,/ | %208
 F/A,/D/A,/ F/A,/D/A,/ F/A,/D/A,/ F/A,/D/A,/ | F/B,/D/B,/ F/B,/D/B,/ F/B,/D/B,/ F/B,/D/B,/ | %210
 ^F/=B,/D/B,/ F/B,/D/B,/ F/B,/D/B,/ F/B,/D/B,/ | ^F/C/D/C/ F/C/D/C/ F/C/D/C/ F/C/D/C/ | %212
 G/B,/D/B,/ G/B,/D/B,/ G/B,/D/B,/ G/B,/D/B,/ | F/A,/D/A,/ F/A,/D/A,/ F/A,/D/A,/ F/A,/D/A,/ | %214
 G/B,/D/B,/ G/B,/D/B,/ G/B,/D/B,/ G/B,/D/B,/ | F/A,/D/A,/ F/A,/D/A,/ F/A,/D/A,/ F/A,/D/A,/ | %216
 F/A,/D/A,/ F/A,/D/A,/ F/A,/D/A,/ F/A,/D/A,/ | F/A,/D/A,/ F/A,/D/A,/ F/A,/D/A,/ F/A,/D/A,/ | %218
 F/A,/D/A,/ F/A,/D/A,/ F/A,/D/A,/ F/A,/D/A,/ | F/A,/D/A,/ F/A,/D/A,/ F/A,/D/A,/ F/[K:bass]A,/D | %220
 F,/A,,/D,/A,,/ F,/A,,/D,/A,,/ F,/A,,/D,/A,,/ F,/A,,/D,/A,,/ | %221
 F,/A,,/D,/A,,/ F,/A,,/D,/A,,/ F,/A,,/D,/A,,/ F,/A,,/D,/A,,/ | %222
 F,/B,,/D,/B,,/ F,/B,,/D,/B,,/ F,/B,,/D,/B,,/ F,/B,,/D,/B,,/ | %223
 G,/B,,/D,/B,,/ G,/B,,/D,/B,,/ G,/B,,/D,/B,,/ G,/B,,/D,/B,,/ | %224
 F,/A,,/D,/A,,/ F,/A,,/D,/A,,/ F,/A,,/D,/A,,/ F,/A,,/D,/A,,/ | %225
 F,/A,,/D,/A,,/ F,/A,,/D,/A,,/ F,/A,,/D,/A,,/ F,/A,,/D,/A,,/ | %226
 F,/B,,/D,/B,,/ F,/B,,/D,/B,,/ F,/B,,/D,/B,,/ F,/B,,/D,/B,,/ | %227
 G,/B,,/D,/B,,/ G,/B,,/D,/B,,/ G,/B,,/D,/B,,/ G,/B,,/D,/B,,/ | %228
 z2[K:treble] [DFAd]2 [^CFA^c]2 [DFAd]2 | z2 [DFAd]2 [^cfa^c']2 [dfad']2 | %230
 z2 [DFAd]2 [^CFA^c]2 [DFAd]2 | z2 [DFAd]2 [^cfa^c']2 [dfad']2 | z2 [DFBd]2 [^CFB^c]2 [DFBd]2 | %233
 z2 [DFBd]2 [^cfb^c']2 [dfbd']2 | z2 [DGBd]2 [^CGB^c]2 [DGBd]2 | z2 [dgbd']2 [dgbd']2 [egbe']2 | %236
 [^CFA^c][Dd][FAdf][Ee] [CFAc][Dd][EAde][Ff] | [^CFB^c][Dd][FBdf][Ee] [FBdf][Gg][EBde][Ff] | %238
 [^cfa^c'][dd'][fad'f'][ee'] [cfac'][dd'][ead'e'][ff'] | %239
 [^cfb^c'][dd'][fbd'f'][ee'] [fbd'f'][gg'][ebd'e'][ff'] | %240
 z[K:bass] D,/A,,/ F,/A,,/D,/A,,/ [D,F,A,D]D,/A,,/ F,/A,,/D,/A,,/ | %241
 [^C,F,A,^C]D,/A,,/ F,/A,,/D,/A,,/ [D,F,A,D]D,/A,,/ F,/A,,/D, | %242
 [F,B,^CF]^C,/B,,/ F,/B,,/C,/B,,/ F,/B,,/C,/B,,/ F,/B,,/C,/B,,/ | %243
 [F,G,]/B,,/^C,/B,,/ [F,G,]/B,,/C,/B,,/ [F,G,]/B,,/C,/B,,/ [F,G,]/B,,/C, | %244
 [F,A,D]/D,/F,/D,/ [F,A,D]/D,/F,/D,/ [F,A,D]/D,/F,/D,/ [F,A,D]/D,/F, | %245
[K:treble] [DFA]/A,/D/A,/ [DFA]/A,/D/A,/ [DFA]/A,/D/A,/ [DFA]/A,/D | %246
 [EGB]/^C/E/C/ [EGB]/C/E/C/ [EGB]/C/E/C/ [EGB]/C/E/C/ | %247
[K:bass] [A,^CE]/G,/A,/G,/ [A,CE]/G,/A,/G,/ [A,CE]/G,/A,/G,/ [A,CE]/G,/A,/G,/ | %248
[K:treble] [DFA]/A,/D/A,/ [DFA]/A,/D/A,/ [DFA]/A,/D/A,/ [DFA]/[K:bass]A,/D/A,/ | %249
 [F,B,D]/D,/F,/D,/ [F,B,D]/D,/F,/D,/ [F,B,D]/D,/F,/D,/ [F,B,D]/D,/F,/D,/ | %250
[K:treble] [B,DG]/G,/B,/G,/ [B,DG]/G,/B,/G,/ [B,DG]/G,/B,/G,/ [B,DG]/[K:bass]G,/B,/G,/ | %251
 [G,A,^C]/E,/G,/E,/ [G,A,C]/E,/G,/E,/ [G,A,C]/E,/G,/E,/ [G,A,C]/E,/G, | %252
[K:treble] F/A,/D/A,/ F/A,/D/A,/ [A,DFA]2 [DFAd]2 | [DFBd]D/B,/ F/B,/D/B,/ F/B,/D/B,/ F/B,/D/B,/ | %254
 G/C/E/C/ G/C/E/C/ [G,CEG]2 [CEGc]2 | [CEAc]E/C/ A/C/E/C/ A/C/E/C/ A/C/E/C/ | %256
 B/D/F/D/ B/D/F [D,F,B,D]2 [DFBd]2 | [DFAd]F/D/ A/D/F/D/ A/D/F/D/ A/D/F/D/ | %258
 G/C/E/C/ G/C/E/C/ [CEGc]E/C/ G/C/E/C/ | [DFAd]D/A,/ F/A,/D/A,/ F/A,/D/A,/ F/A,/D/A,/ | %260
 F/A,/D/A,/ F/A,/D [Adfa]2 [dfad']2 | [dfbd']d/B/ f/B/d/B/ f/B/d/B/ f/B/d/B/ | %262
 g/c/e/c/ g/c/e/c/ [Gceg]2 [cegc']2 | [ceac']e/c/ a/c/e/c/ a/c/e/c/ a/c/e/c/ | %264
 b/d/f/d/ b/d/f [DFBd]2 [dfbd']2 | [dfad']f/d/ a/d/f/d/ a/d/f/d/ a/d/f/d/ | %266
 g/c/e/c/ g/c/e/c/ [cegc']e/c/ g/c/e/c/ | [dfad']d/A/ f/A/d/A/ d/F/A/F/ d/F/A/F/ | %268
 A/D/F/D/ A/D/F/D/ [A,DFA]2 [DFAd]2 | [DFBd]d/B/ f/B/d/B/ f/B/d [DFBd]2 | %270
 [GBdg]d/B/ g/B/d/B/ g/B/d [EGBe]2 | [FAdf]d/A/ f/A/d [DFAd]d/A/ f/A/d/A/ | %272
 f/A/d/A/ f/A/d [A,DFA]2 [DFAd]2 | [DFBd]d/B/ f/B/d/B/ f/B/d [DFBd]2 | %274
 [GBdg]d/G/ g/B/d/B/ g/B/d [EGBe]2 | [FAdf]d/A/ f/A/d/A/ f/A/d/A/ f/A/d/A/ | %276
 f/A/d/A/ f/A/d/A/ [Adfa]2 [dfad']2 | [dfbd']d/B/ f/B/d/B/ f/B/d/B/ f/B/d/B/ | %278
 e/G/c/G/ e/G/c/G/ [Gceg]2 [cegc']2 | [ceac']c/A/ e/A/c/A/ e/A/c/A/ e/A/c/A/ | %280
 f/B/d/B/ f/B/d [DFBd]2 [dfbd']2 | [dfad']d/A/ f/A/d/A/ f/A/d/A/ f/A/d/A/ | %282
 e/G/c/G/ e/G/c [cegc']c/G/ e/G/c | %283
 [dfad'][K:bass]D,/A,,/ F,/A,,/D,/A,,/ F,/A,,/D,/A,,/ F,/A,,/D,/A,,/ | %284
 F,/A,,/D,/A,,/ F,/A,,/D,/A,,/ F,/A,,/D,/A,,/ F,/A,,/D,/A,,/ | %285
 F,/A,,/D,/A,,/ F,/A,,/D,/A,,/ F,/A,,/D,/A,,/ F,/A,,/D,/A,,/ | %286
 [F,,F,]/B,,/^C,/B,,/ F,/B,,/C,/B,,/ F,/B,,/C,/B,,/ F,/B,,/C,/B,,/ | %287
 F,/B,,/^C,/B,,/ F,/B,,/C,/B,,/ F,/B,,/C,/B,,/ F,/B,,/C,/B,,/ | %288
 F,/B,,/^C,/B,,/ F,/B,,/C,/B,,/ F,/B,,/C,/B,,/ F,/B,,/C,/B,,/ | %289
 [A,,F,]D,/A,,/ F,/A,,/D,/A,,/ F,/A,,/D,/A,,/ [B,,F,]/A,,/D,/A,,/ | %290
 [A,,F,]D,/A,,/ F,/A,,/D,/A,,/ F,/A,,/D,/A,,/ [D,F,]/A,,/D,/A,,/ | %291
 [A,,F,]D,/A,,/ F,/A,,/D,/A,,/ F,/A,,/D,/A,,/ [F,,F,]/A,,/D,/A,,/ | %292
 [A,,F,]D,/A,,/ F,/A,,/D,/A,,/ F,/A,,/D,/A,,/ F,/A,,/D,/A,,/ | %293
 F,/A,,/D,/A,,/ F,/A,,/D,/A,,/ F,/A,,/D,/A,,/ F,/A,,/D,/A,,/ | %294
 [F,,B,,D,F,]D,/B,,/ F,/B,,/D,/B,,/ F,/B,,/D,/B,,/ F,/B,,/D,/B,,/ | %295
 F,/B,,/D,/B,,/ F,/B,,/D,/B,,/ F,/B,,/D,/B,,/ F,/B,,/D,/B,,/ | %296
 F,[K:treble][F,B,DF][F,B,DF][F,B,DF] [F,B,DF][F,B,DF][F,B,DF][F,B,DF] |] %297
V:2
 F,,C,F,A, F,2 F,,C, | F,A, F,2 F,,C,F,A, | E,,2 D,,A,, D,A,, D,,2 | E,,B,,E,B,, E,,2 E,,B,, | %4
 E,B,, E,,2 F,,C,F,C, | E,,2 D,,A,, D,A,, D,,2 | D,,A,,D,A,, C,,2 B,,,F,, | %7
 B,,F,, B,,,2 E,,B,,E,B,, | E,,2 C,,G,, C,G,, C,,2 | F,,C,F,A, F,2 F,,C, | F,A, F,2 F,,C,F,A, | %11
 [E,,E,]2 D,,A,, D,F, D,2 | E,,B,,E,G, E,2 E,,B,, | E,G, B,2 F,,C,F,A, | [E,,E,]2 D,,A,, D,F, D,2 | %15
 D,,A,,D,F, [C,,C,]2 B,,,F,, | B,,F,, B,,,2 E,,B,,E,B,, | E,,2 C,,G,, C,G,, C,,2 | %18
 F,,C,F,A, F,2 F,,C, | F,A, F,2 F,,C,F,A, | [E,,E,]2 D,,A,, D,F, D,2 | E,,B,,E,G, E,2 E,,B,, | %22
 E,G, B,2 F,,C,F,A, | [E,,E,]2 D,,A,, D,F, D,2 | D,,A,,D,F, [C,,C,]2 B,,,F,, | %25
 B,,F,, B,,,2 E,,B,,E,B,, | E,,2 C,,G,, C,G,, C,,2 | F,,C,F,A, F,2 F,,C, | F,A, F,2 F,,4 | %29
[K:F] z8 | z4 z4 | z8 | .[D,,,D,,]3 z2 D,,,-D,,, z | %33
 [D,,,D,,]-[D,,,D,,].[A,,A,][C,C] D,,D,D,,.[D,,D,]- | [D,,D,]2 B,,,B,, B,,, .[B,,,B,,]3 | %35
 A,,,A,,A,,, [A,,,A,,]2 D,,D,D, | D,, .[D,,D,]3 B,,,B,,B,,,.[B,,,B,,]- | %37
 [B,,,B,,]2 F,,,F,, F,,, .[F,,,F,,]3 | C,,C,C,, .[C,,C,]3 [D,,D,]2 | %39
 [D,,,D,,] .[D,,,D,,]3 D,,D,D,,.[D,,D,]- | [D,,D,]2 B,,,B,, B,,, .[B,,,B,,]3 | %41
 G,,,G,,G,,, .[G,,,G,,]3 [D,,D,]2 | [D,,D,]-[D,,D,][D,,D,][C,,C,] B,,,B,,B,,,B,, | %43
 [B,,,B,,][B,,,B,,] [D,,D,]2 [D,,D,]-[D,,D,] [D,,D,]2 | %44
 [A,,,A,,]2 [A,,,A,,]-[A,,,A,,] z z [A,,,A,,]2 | [A,,,A,,] [A,,,,A,,,]3 [D,,D,]2 D,.[D,F,A,D]- | %46
 [D,F,A,D]2 [B,,,B,,]2 B,, .[F,B,DF]3 | [A,,,A,,]2 A,, .[G,A,CE]3 [D,,D,]2 | %48
 [D,F,A,D] .[D,F,A,D]3 [B,,,B,,]2 B,,.[F,B,DF]- | [F,B,DF]2 [F,,,F,,]2 F,, .[F,A,CF]3 | %50
 [C,,C,]2 C, [G,A,CE]2 [C,,C,] .[D,,D,]2 | [D,F,A,D] .[D,F,A,D]3 [D,,D,]2 D,.[D,F,A,D]- | %52
 [D,F,A,D]2 [B,,,B,,]2 B,, .[G,B,DG]3 | [G,,,G,,]2 G,, .[G,B,DG]3 [D,,D,]2 | %54
 [D,F,A,D] .[D,F,A,D]3 [B,,,B,,]2 B,,.[F,B,DF]- | [F,B,DF]2 [D,,D,]2 [D,F,A,D] .[D,F,A,D]3 | %56
 [A,,,A,,]2 [A,,,A,,]2 [A,,,A,,]2 [D,,D,]2 | [D,,D,][D,,D,] [^C,,^C,]2 [=C,,=C,]2 [C,,C,][C,,C,] | %58
 [B,,,B,,]2 [A,,,A,,]3 z [A,,,A,,]2 | [A,,,A,,][A,,,A,,][A,,,A,,]-[A,,,A,,] A,,,A,, [B,,,B,,]2- | %60
 [B,,,B,,] z [B,,,B,,]2 [B,,,B,,][B,,,B,,][B,,,B,,]-[B,,,B,,] | %61
 B,,,B,,A,,,A,, A,,, .[A,,,A,,]2 [A,,,A,,] | .[A,,,A,,]2 [A,,,A,,] z3 D,,D, | %63
 [D,,D,] .[D,,D,]3 [D,,D,] [D,,D,]2 [D,,D,]- | [D,,D,][D,,D,]C,,C, [C,,C,] .[C,,C,]3 | %65
 [F,,,F,,] [F,,,F,,]2 [F,,,F,,]2 [F,,,F,,]D,,D, | [D,,D,] .[D,,D,]3 [D,,D,] [D,,D,]2 [D,,D,]- | %67
 [D,,D,][D,,D,]A,,,A,, A,,,A,, [A,,,A,,]2 | [D,,D,]2 [D,,D,] .[D,,D,]3 [D,,D,]2 | %69
 [D,,D,] [D,,D,]3 [C,,C,]2 [C,,C,][C,,C,]- | [C,,C,]2 F,,,F,, F,,,F,,F,,,F,, | %71
 [C,,C,]2 [C,,C,] [C,,C,]3 [D,,D,]2 | [D,,D,] [D,,D,]3 A,,,A,,A,,,A,, | %73
 A,,,A,, [D,,D,]2 [D,,D,][E,,E,] [C,,C,]2 | [D,,D,]2 [D,,D,] [D,,D,]3 [D,,D,]2 | %75
 [D,,D,]-[D,,D,] [D,,D,]2 [C,,C,]2 [C,,C,][C,,C,] | %76
 [C,,C,]2 [F,,,F,,]2 [F,,,F,,]-[F,,,F,,] [F,,,F,,]2 | [B,,,B,,]2 [B,,,B,,] [B,,,B,,]3 [D,,D,]2 | %78
 [D,,D,][D,,D,][D,,,D,,][D,,,D,,] [G,,,G,,]2 [G,,,G,,]-[G,,,G,,] | %79
 [G,,,G,,][G,,,G,,]A,,,A,, A,,,A,,[A,,,A,,][A,,,A,,] | A,,,A,,A,,,A,, [A,,,A,,][^C,,^C,] [D,,D,]2 | %81
 [D,,D,]-[D,,D,][D,,D,][D,,D,] [G,,,G,,]2 [G,,,G,,]-[G,,,G,,] | %82
 [G,,,G,,][G,,,G,,] [F,,F,]2 [F,,F,][F,,F,][F,,,F,,][F,,,F,,] | %83
 [C,,C,]2 [C,,C,]-[C,,C,] [C,,C,][C,,C,] [G,,,G,,]2 | %84
 [G,,,G,,]-[G,,,G,,][G,,,G,,][G,,,G,,] [A,,,A,,]2 [A,,,A,,]-[A,,,A,,] | %85
 [A,,,A,,][A,,,A,,]A,,,A,, A,,,A,,A,,,A,, | D,,D,D,,-D,, [D,,D,][D,,D,] [D,,D,]2 | %87
 [D,,D,]-[D,,D,][D,,D,][D,,D,] [B,,,B,,]2 [B,,,B,,]-[B,,,B,,] | %88
 [B,,,B,,][B,,,B,,]F,,,F,, F,,,F,,F,,,F,, | [C,,C,]2 [C,,C,]-[C,,C,] [C,,C,][C,,C,] [G,,,G,,]2 | %90
 [G,,,G,,]-[G,,,G,,][G,,,G,,][G,,,G,,] [A,,,A,,]2 [A,,,A,,]-[A,,,A,,] | %91
 [A,,,A,,][A,,,A,,]A,,,A,, A,,,A,,A,,,A,, | %92
 [D,,,D,,]2 [D,,,D,,]-[D,,,D,,] [D,,,D,,][D,,,D,,] [D,,,D,,]2- | [D,,,D,,]4 z4 | %94
 D,,2 D,,2 D,,2 D,,2 | D,,2 D,,2 D,,2 D,,2 | D,,2 D,,2 D,,2 D,,2 | D,,2 D,,2 D,,2 D,,2 | %98
 B,,,2 B,,,2 B,,,2 B,,,2 | .B,,,2 B,,,2 B,,,2 B,,,2 | C,,2 C,,2 C,,2 C,,2 | C,,2 C,,2 C,,2 C,,2 | %102
 A,,,2 A,,,2 A,,,2 A,,,2 | A,,,2 A,,,2 .A,,,2 A,,,2 | B,,,2 B,,,2 B,,,2 B,,,2 | %105
 B,,,2 B,,,2 B,,,2 B,,,2 | D,,2 D,,2 D,,2 D,,2 | D,,2 D,,2 D,,2 D,,2 | C,,2 C,,2 C,,2 C,,2 | %109
 C,,2 C,,2 C,,2 C,,2 | G,,,2 G,,,2 G,,,2 G,,,2 | G,,,2 G,,,2 G,,,2 G,,,2 | %112
 [B,,,,B,,,]2[K:treble] GD GDGD | GDGD GD G2 |[K:bass] [C,,,C,,]2 EC EC[K:treble]EC | ECEC EC E2 | %116
[K:bass] [A,,,,A,,,]2[K:treble] AE AEAE | AEAE AE A2 |[K:bass] [B,,,,B,,,]2[K:treble] BF BFBF | %119
 BFBF BF B2 |[K:bass] [D,,,D,,]2[K:treble] AF AFAF | AFAF AF A2 | %122
[K:bass] [C,,,C,,]2[K:treble] GE GEGE | GEGE GE G2 | %124
[K:bass] [D,,,D,,]2 [D,,,D,,]2 [D,,,D,,]2 [D,,,D,,]2 | %125
 [D,,,D,,]2 [D,,,D,,]2 [D,,,D,,]2 [D,,,D,,]2 | %126
 [B,,,,B,,,]2 [B,,,,B,,,]2 [B,,,,B,,,]2 [B,,,,B,,,]2 | %127
 [B,,,,B,,,]2 [B,,,,B,,,]2 [B,,,,B,,,]2 [B,,,,B,,,]2 | %128
 [C,,,C,,]2 [C,,,C,,]2 [C,,,C,,]2 [C,,,C,,]2 | [C,,,C,,]2 [C,,,C,,]2 [C,,,C,,]2 [C,,,C,,]2 | %130
 [A,,,,A,,,]2 [A,,,,A,,,]2 [A,,,,A,,,]2 [A,,,,A,,,]2 | %131
 [A,,,,A,,,]2 [A,,,,A,,,]2 [A,,,,A,,,]2 [A,,,,A,,,]2 | %132
 [B,,,,B,,,]2 [B,,,,B,,,]2 [B,,,,B,,,]2 [B,,,,B,,,]2 | %133
 [B,,,,B,,,]2 [B,,,,B,,,]2 [B,,,,B,,,]2 [B,,,,B,,,]2 | %134
 [D,,,D,,]2 [D,,,D,,]2 [D,,,D,,]2 [D,,,D,,]2 | [D,,,D,,]2 [D,,,D,,]2 [D,,,D,,]2 [D,,,D,,]2 | %136
 [C,,,C,,]2 [C,,,C,,]2 [C,,,C,,]2 [C,,,C,,]2 | [C,,,C,,]2 [C,,,C,,]2 [C,,,C,,]2 [C,,,C,,]2 | %138
 [D,,,D,,]D,F,D, E,,D,F,D, | E,,D,F,D, F,,D,F,D, | [B,,,,B,,,]D,F,D, G,,D,F,D, | %141
 G,,D,F,D, A,,D,F,D, | [C,,,C,,]C,E,C, B,,C,E,C, | B,,C,E,C, C,C,E,C, | %144
 [A,,,,A,,,]C,E,C, D,C,E,C, | D,C,E,C, E,C,E,C, | [B,,,,B,,,]D,F,D, F,D,F,D, | F,D,F,D, G,D,F,D, | %148
 [B,,,,B,,,]D,F,D, A,D,F,D, | A,D,F,D, B,D,F,D, | [C,,,C,,]2 [C,,,C,,]2 [C,,,C,,]2 [C,,,C,,]2 | %151
 [C,,,C,,]2 [C,,,C,,]2 [C,,,C,,]2 [C,,,C,,]2 | D,,2 D,,2 D,,2 D,,2 | D,,2 D,,2 D,,2 D,,2 | %154
 F,,,B,,, B,,,2 B,,,2 B,,,2 | %155
 (5:4:5F,,/4[B,,,B,,]/4-[B,,,B,,] z/4 [B,,,B,,]3/4- [B,,,B,,]<[B,,,B,,] (3[B,,,B,,][A,,,A,,][_A,,,_A,,] [G,,,G,,]/^F,,/(3=F,,/E,,/_E,,/ | %156
 D,,2 D,,2 D,,2 D,,2 | D,,2 D,,2 D,,2 D,,2 | F,,,B,,, B,,,2 B,,,2 B,,,2 | %159
 (5:4:5F,,/4[B,,,B,,]/4-[B,,,B,,] z/4 [B,,,B,,]3/4- [B,,,B,,]<[B,,,B,,] (3[B,,,B,,][A,,,A,,][_A,,,_A,,] [G,,,G,,]/^F,,/(3=F,,/E,,/_E,,/ | %160
 D,,2 D,2 D,2 D,2 | D,2 D,2 D,2 D,2 | F,,,B,,, B,,2 B,,2 B,,2 | %163
 (5:4:5F,,/4[B,,,B,,]/4-[B,,,B,,] z/4 [B,,,B,,]3/4- [B,,,B,,]<[B,,,B,,] (3[B,,,B,,][A,,,A,,][_A,,,_A,,] [G,,,G,,]/^F,,/(3=F,,/E,,/_E,,/ | %164
 D,,2 D,2 D,2 D,2 | D,,2 D,2 D,2 D,2 | F,,,B,,, B,,2 B,,2 B,,2 | %167
 (5:4:5F,,/4[B,,,B,,]/4-[B,,,B,,] z/4 [B,,,B,,]3/4- [B,,,B,,]<[B,,,B,,] (3[B,,,B,,][A,,,A,,][_A,,,_A,,] [G,,,G,,]/^F,,/(3=F,,/E,,/_E,,/ | %168
 [D,,,D,,][D,,,D,,][D,,,D,,][D,,,D,,] [D,,,D,,][D,,,D,,][D,,,D,,][D,,,D,,] | %169
 [D,,,D,,][D,,,D,,][D,,,D,,][D,,,D,,] [D,,,D,,][D,,,D,,][D,,,D,,][D,,,D,,] | %170
 [^C,,,^C,,][C,,,C,,][C,,,C,,][C,,,C,,] [C,,,C,,][C,,,C,,][C,,,C,,][C,,,C,,] | %171
 [^C,,,^C,,][C,,,C,,][C,,,C,,][C,,,C,,] [C,,,C,,][C,,,C,,][C,,,C,,][C,,,C,,] | %172
 [D,,,D,,][D,,,D,,][D,,,D,,][D,,,D,,] [D,,,D,,][D,,,D,,][D,,,D,,][D,,,D,,] | %173
 [D,,,D,,][D,,,D,,][D,,,D,,][D,,,D,,] [D,,,D,,][D,,,D,,][D,,,D,,][D,,,D,,] | %174
 [^C,,,^C,,][C,,,C,,][C,,,C,,][C,,,C,,] [C,,,C,,][C,,,C,,][C,,,C,,][C,,,C,,] | %175
 [^C,,,^C,,][C,,,C,,][C,,,C,,][C,,,C,,] [C,,,C,,][C,,,C,,][C,,,C,,][C,,,C,,] | %176
 [D,,,D,,]D,F,D, F,D,F,D, | F,D,F,D, F,D,F,D, | [B,,,,B,,,]D,F,D, F,D,F,D, | F,D,F,D, F,D,F,D, | %180
 [G,,,G,,]D,G,D, G,D,G,D, | G,D,G,D, G,D,G,D, | [D,,,D,,]D,F,D, F,D,F,D, | F,D,F,D, F,D,F,D, | %184
 [D,,,D,,]D,F,D, F,D,F,D, | F,D,F,D, F,D,F,D, | [B,,,,B,,,]D,F,D, F,D,F,D, | B,D,F,D, A,D,F,D, | %188
 [G,,,G,,]D,G,D, G,D,G,D, | G,D,G,D, E,D,G,D, | [D,,,D,,]8- | [D,,,D,,]8- | [D,,,D,,]8- | %193
 [D,,,D,,]8- | [D,,,D,,]8- | [D,,,D,,]6 z2 | %196
 [D,,,D,,]4- [D,,,D,,]/ z/ [^C,,,^C,,] [D,,,D,,][E,,,E,,] | %197
 [F,,,F,,]4- [F,,,F,,]/ z/ [^C,,,^C,,] [D,,,D,,][E,,,E,,] | [B,,,B,,]8 | %199
 [A,,,A,,]4- [A,,,A,,]/ z/ [^C,,,^C,,] [D,,,D,,][F,,,F,,] | %200
 [B,,,B,,]4- [B,,,B,,]/ z/ [^C,,,^C,,] [D,,,D,,][B,,,B,,] | %201
 [=B,,,=B,,]4- [B,,,B,,]/ z/ [_B,,,_B,,] [=B,,,=B,,][D,,D,] | [B,,,B,,]8 | [A,,,A,,]8- | %204
 [A,,,A,,]8 | [D,,,D,,]4- [D,,,D,,]/ z/ [^C,,,^C,,] [D,,,D,,][E,,,E,,] | %206
 [F,,,F,,]4- [F,,,F,,]/ z/ [^C,,,^C,,] [D,,,D,,][F,,,F,,] | [B,,,B,,]8 | %208
 [A,,,A,,]4- [A,,,A,,]/ z/ [^C,,,^C,,] [D,,,D,,][F,,,F,,] | %209
 [B,,,B,,]4- [B,,,B,,]/ z/ [^C,,,^C,,] [D,,,D,,][B,,,B,,] | %210
 [=B,,,=B,,]4- [B,,,B,,]/ z/ [_B,,,_B,,] [=B,,,=B,,][D,,D,] | %211
 [C,,C,]4- [C,,C,]/ z/ [=B,,,=B,,] [C,,C,][A,,,A,,] | [D,,D,]6 [E,,E,]2 | %213
 [F,,F,]4- [F,,F,]/ z/ [^C,,^C,] [D,,D,][F,,F,] | [B,,,B,,]8 | %215
 [A,,,A,,]4- [A,,,A,,]/ z/ [^C,,,^C,,] [D,,,D,,][E,,,E,,] | %216
 [F,,,F,,]4- [F,,,F,,]/ z/ [^C,,,^C,,] [D,,,D,,][E,,,E,,] | %217
 [F,,,F,,][^C,,,^C,,][D,,,D,,][E,,,E,,] [F,,,F,,][C,,,C,,][D,,,D,,][E,,,E,,] | [F,,,F,,]8- | %219
 [F,,,F,,]8 | [D,,,D,,]2 D2 ^C2 D2 | [D,,,D,,]2 D2 ^C2 D2 | [B,,,,B,,,]2 D2 ^C2 D2 | %223
 [G,,,G,,]2 D2 D2 E2 | [D,,,D,,]2[K:treble] [Dd]2 [^C^c]2 [Dd]2 | %225
[K:bass] [D,,,D,,]2[K:treble] [Dd]2 [^C^c]2 [Dd]2 | %226
[K:bass] [B,,,,B,,,]2[K:treble] [Dd]2 [^C^c]2 [Dd]2 | %227
[K:bass] [G,,,G,,]2[K:treble] [Dd]2 [Dd]2 [Ee]2 | %228
[K:bass] [D,,,D,,]D,/A,,/ F,/A,,/E,/A,,/ ^C,/A,,/B,,/A,,/ E,/A,,/F, | %229
 [D,,,D,,]D,/A,,/ F,/A,,/E,/A,,/ F,/A,,/G,/A,,/ E,/A,,/F, | %230
 [F,,,F,,]D,/A,,/ F,/A,,/E,/A,,/ ^C,/A,,/D,/A,,/ E,/A,,/F, | %231
 [F,,,F,,]D,/A,,/ F,/A,,/E,/A,,/ F,/A,,/G,/A,,/ E,/A,,/F, | %232
 [B,,,,B,,,]D,/B,,/ F,/B,,/E,/B,,/ ^C,/B,,/D,/B,,/ E,/B,,/F, | %233
 [B,,,,B,,,]D,/B,,/ F,/B,,/E,/B,,/ F,/B,,/G,/B,,/ E,/B,,/F, | %234
 [G,,,G,,]D,/B,,/ F,/B,,/E,/B,,/ ^C,/B,,/D,/B,,/ E,/B,,/F, | %235
 [G,,,G,,]D,/B,,/ F,/B,,/E,/B,,/ F,/B,,/G,/B,,/ E,/B,,/F, | %236
 [D,,,D,,]2 [D,,,D,,]2 [F,,,F,,]2 [F,,,F,,]2 | [B,,,B,,]2 [B,,,B,,]2 [G,,,G,,]2 [G,,,G,,]2 | %238
 [D,,,D,,][D,,,D,,][D,,,D,,][D,,,D,,] [F,,,F,,][F,,,F,,][F,,,F,,][F,,,F,,] | %239
 [B,,,B,,][B,,,B,,][B,,,B,,][B,,,B,,] [G,,,G,,][G,,,G,,][G,,,G,,][G,,,G,,] | D,,2 D,,2 D,,2 D,,2 | %241
 D,,2 D,,2 D,,2 D,,2 | [^C,,,^C,,]2 [C,,,C,,]2 [C,,,C,,]2 [C,,,C,,]2 | %243
 [^C,,,^C,,]2 [C,,,C,,]2 [C,,,C,,]2 [C,,,C,,]2 | %244
 [D,,,D,,]D,,[D,,,D,,]D,, [D,,,D,,]D,,[D,,,D,,]D,, | %245
 [F,,,F,,]F,,[F,,,F,,]F,, [F,,,F,,]F,,[F,,,F,,]F,, | %246
 [E,,,E,,]E,,[E,,,E,,]E,, [E,,,E,,]E,,[E,,,E,,]E,, | %247
 [G,,,G,,]G,,[G,,,G,,]G,, [G,,,G,,]G,,[G,,,G,,]G,, | %248
 [F,,,F,,]F,,[F,,,F,,]F,, [F,,,F,,]F,,[F,,,F,,]F,, | %249
 [B,,,B,,]B,,[B,,,B,,]B,, [B,,,B,,]B,,[B,,,B,,]B,, | %250
 [G,,,G,,]G,,[G,,,G,,]G,, [G,,,G,,]G,,[G,,,G,,]G,, | %251
 [A,,,A,,]A,,[A,,,A,,]A,, [A,,,A,,]A,,[A,,,A,,]A,, | %252
 [D,,,D,,]D,,[D,,,D,,]D,, [D,,,D,,]D,, [E,,,E,,]/[F,,,F,,]/[G,,,G,,]/[A,,,A,,]/ | %253
 [B,,,B,,]B,,[B,,,B,,]B,, [B,,,B,,]B,, [B,,,B,,][A,,,A,,]/[B,,,B,,]/ | %254
 [C,,C,]C,[C,,C,]C, [C,,C,]C, [C,,C,]/[B,,,B,,]/[A,,,A,,]/[G,,,G,,]/ | %255
 [A,,,A,,]A,,[A,,,A,,]A,, [A,,,A,,]A,, [A,,,A,,][G,,,G,,]/[A,,,A,,]/ | %256
 [B,,,B,,]B,,[B,,,B,,]B,, [B,,,B,,]B,, [A,,,A,,]/[G,,,G,,]/[F,,,F,,]/[E,,,E,,]/ | %257
 [D,,,D,,]D,,[D,,,D,,]D,, [D,,,D,,]D,,[D,,,D,,]D,, | %258
 [C,,,C,,]C,,[C,,,C,,]C,, [C,,,C,,]C,,[C,,,C,,]C,, | %259
 [D,,,D,,]D,,[D,,,D,,]D,, [D,,,D,,]D,,[D,,,D,,]D,, | %260
 [D,,,D,,]D,,[D,,,D,,]D,, [D,,,D,,]D,, [E,,,E,,]/[F,,,F,,]/[G,,,G,,]/[A,,,A,,]/ | %261
 [B,,,B,,]B,,[B,,,B,,]B,, [B,,,B,,]B,, [B,,,B,,][A,,,A,,]/[B,,,B,,]/ | %262
 [C,,C,]C,[C,,C,]C, [C,,C,]C, [C,,C,]/[B,,,B,,]/[A,,,A,,]/[G,,,G,,]/ | %263
 [A,,,A,,]A,,[A,,,A,,]A,, [A,,,A,,]A,, [A,,,A,,][G,,,G,,]/[A,,,A,,]/ | %264
 [B,,,B,,]B,,[B,,,B,,]B,, [B,,,B,,]B,, [A,,,A,,]/[G,,,G,,]/[F,,,F,,]/[E,,,E,,]/ | %265
 [D,,,D,,]D,,[D,,,D,,]D,, [D,,,D,,]D,,[D,,,D,,]D,, | %266
 [C,,,C,,]C,,[C,,,C,,]C,, [C,,,C,,]C,,[C,,,C,,]C,, | %267
 [D,,,D,,]D,,[D,,,D,,]D,, [D,,,D,,]D,,[D,,,D,,]D,, | %268
 [D,,,D,,]D,,[D,,,D,,]D,, [D,,,D,,]D,, [E,,,E,,]/[F,,,F,,]/[G,,,G,,]/[A,,,A,,]/ | %269
 [B,,,B,,]B,,[B,,,B,,]B,, [B,,,B,,]B,, [B,,,B,,]/[A,,,A,,]/[G,,,G,,]/[F,,,F,,]/ | %270
 [G,,,G,,]G,,[G,,,G,,]G,, [G,,,G,,]G,, [G,,,G,,][F,,,F,,]/[E,,,E,,]/ | %271
 [D,,,D,,]D,,[D,,,D,,]D,, [D,,,D,,]D,,[D,,,D,,]D,, | %272
 [D,,,D,,]D,,[D,,,D,,]D,, [D,,,D,,]D,, [E,,,E,,]/[F,,,F,,]/[G,,,G,,]/[A,,,A,,]/ | %273
 [B,,,B,,]B,,[B,,,B,,]B,, [B,,,B,,]B,, [B,,,B,,]/[A,,,A,,]/[G,,,G,,]/[F,,,F,,]/ | %274
 [G,,,G,,]G,,[G,,,G,,]G,, [G,,,G,,]G,, [G,,,G,,][F,,,F,,]/[E,,,E,,]/ | %275
 [D,,,D,,]D,,[D,,,D,,]D,, [D,,,D,,]D,,[D,,,D,,]D,, | %276
 [D,,,D,,]D,,[D,,,D,,]D,, [D,,,D,,]D,,[C,,,C,,]C,, | %277
 [B,,,,B,,,]B,,[B,,,B,,]B,, [B,,,B,,]B,, B,,[A,,,A,,]/[B,,,B,,]/ | %278
 [C,,C,]C,[C,,C,]C, [C,,C,]C, [C,,C,]/[B,,,B,,]/[A,,,A,,]/[G,,,G,,]/ | %279
 [A,,,A,,]A,,[A,,,A,,]A,, [A,,,A,,]A,, [A,,,A,,][G,,,G,,]/[A,,,A,,]/ | %280
 [B,,,B,,]B,,[B,,,B,,]B,, [B,,,B,,]B,, [A,,,A,,]/[G,,,G,,]/[F,,,F,,]/[E,,,E,,]/ | %281
 [D,,,D,,]D,,[D,,,D,,]D,, [D,,,D,,]D,,[D,,,D,,]D,, | %282
 [C,,,C,,]C,,[C,,,C,,]C,, [C,,,C,,]C,,[C,,,C,,]C,, | %283
 [D,,,D,,][D,,,D,,][D,,,D,,][D,,,D,,] [D,,,D,,][D,,,D,,][D,,,D,,][D,,,D,,] | %284
 [D,,,D,,][D,,,D,,][D,,,D,,][D,,,D,,] [D,,,D,,][D,,,D,,][D,,,D,,][D,,,D,,] | %285
 [D,,,D,,][D,,,D,,][D,,,D,,][D,,,D,,] [D,,,D,,][D,,,D,,][D,,,D,,][D,,,D,,] | %286
 [^C,,,^C,,][C,,,C,,][C,,,C,,][C,,,C,,] [C,,,C,,][C,,,C,,][C,,,C,,][C,,,C,,] | %287
 [^C,,,^C,,][C,,,C,,][C,,,C,,][C,,,C,,] [C,,,C,,][C,,,C,,][C,,,C,,][C,,,C,,] | %288
 [^C,,,^C,,][C,,,C,,][C,,,C,,][C,,,C,,] [C,,,C,,][C,,,C,,][C,,,C,,][C,,,C,,] | %289
 [D,,,D,,][D,,,D,,][D,,,D,,][D,,,D,,] [D,,,D,,][D,,,D,,][D,,,D,,][D,,,D,,] | %290
 [D,,,D,,][D,,,D,,][D,,,D,,][D,,,D,,] [D,,,D,,][D,,,D,,][D,,,D,,][D,,,D,,] | %291
 [D,,,D,,][D,,,D,,][D,,,D,,][D,,,D,,] [D,,,D,,][D,,,D,,][D,,,D,,][D,,,D,,] | %292
 [D,,,D,,][D,,,D,,][D,,,D,,][D,,,D,,] [D,,,D,,][D,,,D,,][D,,,D,,][D,,,D,,] | %293
 [D,,,D,,][D,,,D,,][D,,,D,,][D,,,D,,] [D,,,D,,][D,,,D,,][D,,,D,,][D,,,D,,] | %294
 [B,,,,B,,,][B,,,,B,,,][B,,,,B,,,][B,,,,B,,,] [B,,,,B,,,][B,,,,B,,,][B,,,,B,,,][B,,,,B,,,] | %295
 [B,,,,B,,,][B,,,,B,,,][B,,,,B,,,][B,,,,B,,,] [B,,,,B,,,][B,,,,B,,,][B,,,,B,,,][B,,,,B,,,] | %296
 [B,,,,B,,,][B,,,,B,,,][B,,,,B,,,][B,,,,B,,,] [B,,,,B,,,][B,,,,B,,,][B,,,,B,,,][B,,,,B,,,] |] %297
V:3
 x8 | x8 | x2[K:bass] x6 | x8 | x8 | x8 | x6[K:bass] x2 | x8 | x8 | x8 | x4[K:treble] x4 | x8 | %12
 x8 | x8 | x8 | x8 | x8 | x4[K:bass] x4 | F,6 F,2- | F,4[K:treble] [Cc]2 [Ff]2 | x8 | x8 | x8 | %23
 x8 | x8 | x8 | x4[K:bass] x4 | F,6 F,2- | F,4 F,4- |[K:F] F,2 x z/ z/ z z z2 | x8 | x8 | x8 | x8 | %34
[K:treble] x8 | x7[K:bass] x | x8 | x/[K:treble] x15/2 | x6[K:bass] x2 | x8 |[K:treble] x8 | x8 | %42
 x8 | x8 | x8 | x8 | x8 | x8 | x8 | x8 | x8 | x8 | x8 | x8 | x8 | x8 | x8 | x8 | x8 | x8 | x8 | %61
 x2[K:bass] x6 |[K:treble] x8 | x8 | x8 | x8 | x8 | x8 | x8 | x8 | x8 | x8 | x8 | x8 | x8 | x8 | %76
 x8 | x8 | x8 | x8 | x8 | x8 | x8 | x8 | x8 | x8 | x8 | x8 | x8 | x8 | x8 | x8 | x6[K:bass] x2 | %93
 x8 | x8 | x8 | x8 | x8 | x8 | x8 | x8 | x8 | x8 | x8 | x8 | x8 | x8 | x8 | x8 | x8 | x8 | x8 | %112
 x8 | x8 | x8 | x8 | x8 | x8 | x8 | x8 | x8 | x8 | x8 | x8 | x[K:treble] x7 | x8 | x8 | %127
 x5/2[K:bass] x5/2[K:treble] x5/2[K:bass] x/ | x2[K:treble] x5/2[K:bass] x5/2[K:treble] x | x8 | %130
 x8 | x8 |[K:bass] x[K:treble] x7 | x8 | x8 | x8 | x8 | x8 | x13/2[K:bass] x3/2 | %139
 x2[K:treble] x9/2[K:bass] x3/2 | x[K:treble] x7 | x13/2[K:bass] x3/2 | %142
 x[K:treble] x5/2[K:bass] x9/2 | x[K:treble] x5/2[K:bass] x5/2[K:treble] x2 | %144
 x/[K:bass] x5/2[K:treble] x5/2[K:bass] x5/2 |[K:treble] x5/2[K:bass] x5/2[K:treble] x3 | %146
 x13/2[K:bass] x3/2 | x[K:treble] x7 | x8 | x13/2[K:bass] x3/2 | %150
 x[K:treble] x5/2[K:bass] x5/2[K:treble] x2 | x/[K:bass] x5/2[K:treble] x5/2[K:bass] x5/2 | x8 | %153
 x8 | x8 | x8 | x8 | x8 | x8 | x4[K:treble] x4 | x8 | x8 | x8 | x8 | x8 | x8 | x8 | x8 | %168
[K:bass] x8 | x8 | x8 | x8 | x8 | x8 | x8 | x8 |[K:treble] x8 | x8 | x8 | x8 | x8 | x8 | x8 | x8 | %184
 x13/2[K:bass] x3/2 | x2[K:treble] x9/2[K:bass] x3/2 | x[K:treble] x7 | %187
 x5/2[K:bass] x5/2[K:treble] x3 | x8 | x5/2[K:bass] x5/2[K:treble] x3 | x8 | x8 | x8 | x8 | x8 | %195
 x8 | x8 | x8 | x8 | x8 | x8 | x8 | x8 | x8 | x8 | x8 | x8 | x8 | x8 | x8 | x8 | x8 | x8 | x8 | %214
 x8 | x8 | x8 | x8 | x8 | x13/2[K:bass] x3/2 | x8 | x8 | x8 | x8 | x8 | x8 | x8 | x8 | %228
 x2[K:treble] x6 | x8 | x8 | x8 | x8 | x8 | x8 | x8 | x8 | x8 | x8 | x8 | x[K:bass] x7 | x8 | x8 | %243
 x8 | x8 |[K:treble] x8 | x8 |[K:bass] x8 |[K:treble] x13/2[K:bass] x3/2 | x8 | %250
[K:treble] x13/2[K:bass] x3/2 | x8 |[K:treble] x8 | x8 | x8 | x8 | x8 | x8 | x8 | x8 | x8 | x8 | %262
 x8 | x8 | x8 | x8 | x8 | x8 | x8 | x8 | x8 | x8 | x8 | x8 | x8 | x8 | x8 | x8 | x8 | x8 | x8 | %281
 x8 | x8 | x[K:bass] x7 | x8 | x8 | x8 | x8 | x8 | x8 | x8 | x8 | x8 | x8 | x8 | x8 | %296
 x[K:treble] x7 |] %297
V:4
 x8 | x8 | x8 | x8 | x8 | x8 | x8 | x8 | x8 | x8 | x8 | x8 | x8 | x8 | x8 | x8 | x8 | x8 | x8 | %19
 x8 | x8 | x8 | x8 | x8 | x8 | x8 | x8 | x8 | x8 |[K:F] x8 | x8 | x8 | z3 z2 D,, z2 | z4 x4 | x8 | %35
 x8 | x8 | x8 | x8 | x8 | x8 | x8 | x8 | x8 | x8 | x8 | x8 | x8 | x8 | x8 | x8 | x8 | x8 | x8 | %54
 x8 | x8 | x8 | x8 | x8 | x8 | x8 | x8 | x8 | x8 | x8 | x8 | x8 | x8 | x8 | x8 | x8 | x8 | x8 | %73
 x8 | x8 | x8 | x8 | x8 | x8 | x8 | x8 | x8 | x8 | x8 | x8 | x8 | x8 | x8 | x8 | x8 | x8 | x8 | %92
 x8 | x8 | D,,,8- | D,,,8 | D,,,8- | D,,,8 | B,,,,8- | B,,,,8 | C,,,8- | C,,,8 | A,,,,8- | A,,,,8 | %104
 B,,,,8- | B,,,,8 | D,,,8- | D,,,8 | C,,,8- | C,,,8 | x8 | x8 | x2[K:treble] x6 | x8 | %114
[K:bass] x6[K:treble] x2 | x8 |[K:bass] x2[K:treble] x6 | x8 |[K:bass] x2[K:treble] x6 | x8 | %120
[K:bass] x2[K:treble] x6 | x8 |[K:bass] x2[K:treble] x6 | x8 |[K:bass] x8 | x8 | x8 | x8 | x8 | %129
 x8 | x8 | x8 | x8 | x8 | x8 | x8 | x8 | x8 | x8 | x8 | x8 | x8 | x8 | x8 | x8 | x8 | x8 | x8 | %148
 x8 | x8 | x8 | x8 | D,,,8- | D,,,8 | B,,,,8 | x8 | D,,,8- | D,,,8 | B,,,,8 | x8 | D,,,8- | D,,,8 | %162
 B,,,,8 | x8 | D,,,8- | D,,,8 | B,,,,8 | x8 | x8 | x8 | x8 | x8 | x8 | x8 | x8 | x8 | x8 | x8 | %178
 x8 | x8 | x8 | x8 | x8 | x8 | x8 | x8 | x8 | x8 | x8 | x8 | x8 | x8 | x8 | x8 | x8 | x8 | x8 | %197
 x8 | x8 | x8 | x8 | x8 | x8 | x8 | x8 | x8 | x8 | x8 | x8 | x8 | x8 | x8 | x8 | x8 | x8 | x8 | %216
 x8 | x8 | x8 | x8 | x8 | x8 | x8 | x8 | x2[K:treble] x6 |[K:bass] x2[K:treble] x6 | %226
[K:bass] x2[K:treble] x6 |[K:bass] x2[K:treble] x6 |[K:bass] x8 | x8 | x8 | x8 | x8 | x8 | x8 | %235
 x8 | x8 | x8 | x8 | x8 | D,,,8- | D,,,8 | x8 | x8 | x8 | x8 | x8 | x8 | x8 | x8 | x8 | x8 | x8 | %253
 x8 | x8 | x8 | x8 | x8 | x8 | x8 | x8 | x8 | x8 | x8 | x8 | x8 | x8 | x8 | x8 | x8 | x8 | x8 | %272
 x8 | x8 | x8 | x8 | x8 | x8 | x8 | x8 | x8 | x8 | x8 | x8 | x8 | x8 | x8 | x8 | x8 | x8 | x8 | %291
 x8 | x8 | x8 | x8 | x8 | x8 |] %297

